X:28
T:Daalse Rij
C:Traditioneel
O:Leefdaal, Vlaanderen
Z:Bert Van Vreckem <http://flanders.blackmill.net/music/>
M:2/4
L:1/8
Q:1/4=120
N:Intro (AB)x2
K:F
P:Intro
"F"FF/F/ FA|c3 (E/F/)|"C7"GG/A/ BE|"F"FFF c||
P:A
|:("F"c/d/)c/B/ Ac|f2- f/e/f/g/|(a/b/)a/g/ (f/e/)d/c/|"C"B3f|\
% 5
(e/f/)e/d/ ce|g2- gg/a/|("C7"b/a/)g/f/ e/f/e/d/|("F"c/d/)c/B/ Ac|
% 9
("F"c/d/)c/B/ Ac|f2- f/e/f/g/|(a/b/)a/g/ (f/g/)f/e/|"Bb"d2 zd|\
%13
b/a/g/f/ e/f/e/d/|"F"c/d/c/B/ A/B/c/d/|"C7"e/f/g/a/ b/g/f/e/|\
[1"F"faf c:|[2"F"fff z||
P:B
K:Bb
%33
|:"Bb"d/f/d/f/ d/f/d/f/|"Eb"e/g/e/g/ e/g/e/g/|"F"f/a/f/a/ f/a/f/a/|"Bb"g/f/=e/f/ dz|
"Bb"d/f/d/f/ d/f/d/f/|"Eb"e/g/e/g/ e/g/e/g/|"F"f/a/f/a/ g/f/g/a/|"Bb"bbb z:|

